src/icons/helpscout-logo.svg

<svg height="20" viewBox="0 0 20 20" width="20" xmlns="http://www.w3.org/2000/svg"><path d="m9.105 7c.55-.51.89-1.226.89-2.008a2.76 2.76 0 0 0 -.862-1.992l-4.243 4a2.74 2.74 0 0 0 -.89 2.008c0 .782.332 1.482.864 1.992zm1.79 6a2.74 2.74 0 0 0 -.89 2.008c0 .774.331 1.482.863 1.992l4.242-4c.55-.51.89-1.226.89-2.008s-.332-1.482-.864-1.992zm5.105-7.959a2.86 2.86 0 0 0 -.864-2.041l-10.246 9.893a2.858 2.858 0 0 0 -.89 2.066c0 .793.332 1.518.864 2.041l10.246-9.901a2.84 2.84 0 0 0 .89-2.059z" fill="#c1cbd4" fill-rule="evenodd"/></svg>

<svg width="20" height="20" viewBox="0 0 20 20" xmlns="http://www.w3.org/2000/svg"><title>Help Scout Logo</title><path d="M9.105 7c.55-.51.89-1.226.89-2.008A2.76 2.76 0 0 0 9.133 3L4.89 7A2.74 2.74 0 0 0 4 9.008c0 .782.332 1.482.864 1.992l4.241-4zm1.79 6a2.74 2.74 0 0 0-.89 2.008c0 .774.331 1.482.863 1.992l4.242-4c.55-.51.89-1.226.89-2.008S15.668 9.51 15.136 9l-4.241 4zM16 5.041A2.86 2.86 0 0 0 15.136 3L4.89 12.893A2.858 2.858 0 0 0 4 14.959c0 .793.332 1.518.864 2.041L15.11 7.099A2.84 2.84 0 0 0 16 5.04z" fill="#C1CBD4" fill-rule="evenodd"/></svg>
